src/components/stable/gux-icon/icons/cc-webchat-missed.svg

<svg viewBox="0 0 27 24" fill="none" xmlns="http://www.w3.org/2000/svg">
  <path fill-rule="evenodd" clip-rule="evenodd" d="M13.5175 22.2857C20.9329 22.2857 27 17.3143 27 11.1429C27 4.97143 20.9329 0 13.5175 0C6.10205 0 0.0349044 4.97143 0.0349044 11.1429C0.0349044 13.8 1.13036 16.2857 2.98421 18.1714C2.39435 20.0571 1.46743 21.8571 0.11917 23.3143C0.0349044 23.4 -0.0493622 23.5714 0.0349044 23.7429C0.11917 23.9143 0.287702 24 0.456234 24C3.15274 24 5.76499 22.9714 7.87164 21.2571C9.64122 21.9429 11.5793 22.2857 13.5175 22.2857ZM18.2839 8.87811C18.3826 8.77944 18.3826 8.60444 18.2839 8.50577L17.0506 7.27239C16.9519 7.17372 16.7769 7.17372 16.6782 7.27239L13.7782 10.1725L10.8781 7.27239C10.7794 7.17372 10.6044 7.17372 10.5058 7.27239L9.2724 8.50577C9.17373 8.60444 9.17326 8.77897 9.2724 8.87811L12.1725 11.7782L9.2724 14.6782C9.17373 14.7769 9.17326 14.9514 9.2724 15.0506L10.5058 16.2839C10.6044 16.3826 10.779 16.3831 10.8781 16.2839L13.7782 13.3839L16.6782 16.2839C16.7769 16.3826 16.9514 16.3831 17.0506 16.2839L18.2839 15.0506C18.3826 14.9519 18.3826 14.7769 18.2839 14.6782L15.3839 11.7782L18.2839 8.87811Z"/>
</svg>

<svg viewBox="0 0 27 24" fill="none" xmlns="http://www.w3.org/2000/svg"><path clip-rule="evenodd" d="M13.518 22.286C20.933 22.286 27 17.314 27 11.143 27 4.97 20.933 0 13.518 0 6.101 0 .034 4.971.034 11.143c0 2.657 1.095 5.143 2.95 7.028-.59 1.886-1.518 3.686-2.866 5.143-.084.086-.168.257-.084.429A.462.462 0 00.456 24c2.697 0 5.309-1.029 7.416-2.743 1.77.686 3.707 1.029 5.646 1.029zm4.766-13.408a.271.271 0 000-.372L17.05 7.272a.271.271 0 00-.373 0l-2.9 2.9-2.9-2.9a.271.271 0 00-.372 0L9.272 8.506a.27.27 0 000 .372l2.9 2.9-2.9 2.9a.27.27 0 000 .373l1.234 1.233a.27.27 0 00.372 0l2.9-2.9 2.9 2.9a.27.27 0 00.373 0l1.233-1.233a.271.271 0 000-.373l-2.9-2.9 2.9-2.9z"/></svg>
